X:1
T:The Wedding
R:reel
M:4/4
L:1/8
K:D
DE|:~F2BF AFEF|~D2DE FABd|~e2fd efdB|ABde dBAE|
|~F2BF AFEF|~D2DE FABd|~e2fd efdB|1 ABde d2DE:|2 ABde d2dB|]
|:A3f edfd|A2Af edfd|ABdA BdAB|dBAF EFDE|
|~F2BF AFEF|~D2DE FABd|~e2fd efdB|1 ABde d2dB:|2 ABde d2DE|]